X:1
T:The Wagon
M:6/8
L:1/8
S:Trevor Keates <tanda.keates@tesco.net> tradtunes 2006-3-25
K:G
d | g2g d2d | Bcd G2G | A2A d2d | B2c ^c2d \
    g2g d2d | Bcd G2G | A2A d2d | (G3 G2) ||
^G | A2A d2d | B2c ^c2d | ^c2d ^d2e | d2^d e2f \
     g2g d2d | Bcd G2G | A2A d2d | (G3 G2) ||
G | A2F D2D | B2G D2D | c2c ABc | (d3 d2)d \
    e2e cde | d2d B2B | A2B ^c2A | d2e f2d ||
    g2g d2d | Bcd G2G | A2A d2d | B2c ^c2d \
    g2g d2d | Bcd G2G | A2A d2d | (G3 G2) |]
